static/img/kroki/fd0ce04b17264caba76f6fe1c91811dc.svg

<?xml version="1.0" encoding="us-ascii" standalone="no"?><svg xmlns="http://www.w3.org/2000/svg" xmlns:xlink="http://www.w3.org/1999/xlink" contentStyleType="text/css" height="252px" preserveAspectRatio="none" style="width:1049px;height:252px;" version="1.1" viewBox="0 0 1049 252" width="1049px" zoomAndPan="magnify"><defs/><g><!--class aws_sagemaker_app--><g id="elem_aws_sagemaker_app"><rect codeLine="22" fill="#3D176E" height="39.7891" id="aws_sagemaker_app" rx="2.5" ry="2.5" style="stroke:#000D19;stroke-width:0.5;" width="215" x="7" y="206.58"/><ellipse cx="22" cy="226.4745" fill="#ADD1B2" rx="11" ry="11" style="stroke:#181818;stroke-width:1.0;"/><path d="M24.9688,232.1152 Q24.3906,232.412 23.75,232.5527 Q23.1094,232.7089 22.4063,232.7089 Q19.9063,232.7089 18.5781,231.0683 Q17.2656,229.412 17.2656,226.287 Q17.2656,223.162 18.5781,221.5058 Q19.9063,219.8495 22.4063,219.8495 Q23.1094,219.8495 23.75,220.0058 Q24.4063,220.162 24.9688,220.4589 L24.9688,223.1777 Q24.3438,222.5995 23.75,222.3339 Q23.1563,222.0527 22.5313,222.0527 Q21.1875,222.0527 20.5,223.1308 Q19.8125,224.1933 19.8125,226.287 Q19.8125,228.3808 20.5,229.4589 Q21.1875,230.5214 22.5313,230.5214 Q23.1563,230.5214 23.75,230.2558 Q24.3438,229.9745 24.9688,229.3964 L24.9688,232.1152 Z " fill="#000000"/><text fill="#D9B8FF" font-family="Helvetica" font-size="17" lengthAdjust="spacing" textLength="173" x="41" y="232.3598">aws_sagemaker_app</text></g><!--class aws_sagemaker_artifact--><g id="elem_aws_sagemaker_artifact"><rect codeLine="24" fill="#3D176E" height="39.7891" id="aws_sagemaker_artifact" rx="2.5" ry="2.5" style="stroke:#000D19;stroke-width:0.5;" width="245" x="257" y="206.58"/><ellipse cx="272" cy="226.4745" fill="#ADD1B2" rx="11" ry="11" style="stroke:#181818;stroke-width:1.0;"/><path d="M274.9688,232.1152 Q274.3906,232.412 273.75,232.5527 Q273.1094,232.7089 272.4063,232.7089 Q269.9063,232.7089 268.5781,231.0683 Q267.2656,229.412 267.2656,226.287 Q267.2656,223.162 268.5781,221.5058 Q269.9063,219.8495 272.4063,219.8495 Q273.1094,219.8495 273.75,220.0058 Q274.4063,220.162 274.9688,220.4589 L274.9688,223.1777 Q274.3438,222.5995 273.75,222.3339 Q273.1563,222.0527 272.5313,222.0527 Q271.1875,222.0527 270.5,223.1308 Q269.8125,224.1933 269.8125,226.287 Q269.8125,228.3808 270.5,229.4589 Q271.1875,230.5214 272.5313,230.5214 Q273.1563,230.5214 273.75,230.2558 Q274.3438,229.9745 274.9688,229.3964 L274.9688,232.1152 Z " fill="#000000"/><text fill="#D9B8FF" font-family="Helvetica" font-size="17" lengthAdjust="spacing" textLength="203" x="291" y="232.3598">aws_sagemaker_artifact</text></g><!--class aws_sagemaker_domain--><g id="elem_aws_sagemaker_domain"><rect codeLine="26" fill="#3D176E" height="39.7891" id="aws_sagemaker_domain" rx="2.5" ry="2.5" style="stroke:#000D19;stroke-width:0.5;" width="248" x="393.5" y="7"/><ellipse cx="408.5" cy="26.8945" fill="#ADD1B2" rx="11" ry="11" style="stroke:#181818;stroke-width:1.0;"/><path d="M411.4688,32.5352 Q410.8906,32.832 410.25,32.9727 Q409.6094,33.1289 408.9063,33.1289 Q406.4063,33.1289 405.0781,31.4883 Q403.7656,29.832 403.7656,26.707 Q403.7656,23.582 405.0781,21.9258 Q406.4063,20.2695 408.9063,20.2695 Q409.6094,20.2695 410.25,20.4258 Q410.9063,20.582 411.4688,20.8789 L411.4688,23.5977 Q410.8438,23.0195 410.25,22.7539 Q409.6563,22.4727 409.0313,22.4727 Q407.6875,22.4727 407,23.5508 Q406.3125,24.6133 406.3125,26.707 Q406.3125,28.8008 407,29.8789 Q407.6875,30.9414 409.0313,30.9414 Q409.6563,30.9414 410.25,30.6758 Q410.8438,30.3945 411.4688,29.8164 L411.4688,32.5352 Z " fill="#000000"/><text fill="#D9B8FF" font-family="Helvetica" font-size="17" lengthAdjust="spacing" textLength="206" x="427.5" y="32.7798">aws_sagemaker_domain</text></g><!--class aws_sagemaker_pipeline--><g id="elem_aws_sagemaker_pipeline"><rect codeLine="28" fill="#3D176E" height="39.7891" id="aws_sagemaker_pipeline" rx="2.5" ry="2.5" style="stroke:#000D19;stroke-width:0.5;" width="251" x="537" y="206.58"/><ellipse cx="552" cy="226.4745" fill="#ADD1B2" rx="11" ry="11" style="stroke:#181818;stroke-width:1.0;"/><path d="M554.9688,232.1152 Q554.3906,232.412 553.75,232.5527 Q553.1094,232.7089 552.4063,232.7089 Q549.9063,232.7089 548.5781,231.0683 Q547.2656,229.412 547.2656,226.287 Q547.2656,223.162 548.5781,221.5058 Q549.9063,219.8495 552.4063,219.8495 Q553.1094,219.8495 553.75,220.0058 Q554.4063,220.162 554.9688,220.4589 L554.9688,223.1777 Q554.3438,222.5995 553.75,222.3339 Q553.1563,222.0527 552.5313,222.0527 Q551.1875,222.0527 550.5,223.1308 Q549.8125,224.1933 549.8125,226.287 Q549.8125,228.3808 550.5,229.4589 Q551.1875,230.5214 552.5313,230.5214 Q553.1563,230.5214 553.75,230.2558 Q554.3438,229.9745 554.9688,229.3964 L554.9688,232.1152 Z " fill="#000000"/><text fill="#D9B8FF" font-family="Helvetica" font-size="17" lengthAdjust="spacing" textLength="209" x="571" y="232.3598">aws_sagemaker_pipeline</text></g><!--class aws_sagemaker_trial--><g id="elem_aws_sagemaker_trial"><rect codeLine="30" fill="#3D176E" height="39.7891" id="aws_sagemaker_trial" rx="2.5" ry="2.5" style="stroke:#000D19;stroke-width:0.5;" width="219" x="823" y="206.58"/><ellipse cx="838" cy="226.4745" fill="#ADD1B2" rx="11" ry="11" style="stroke:#181818;stroke-width:1.0;"/><path d="M840.9688,232.1152 Q840.3906,232.412 839.75,232.5527 Q839.1094,232.7089 838.4063,232.7089 Q835.9063,232.7089 834.5781,231.0683 Q833.2656,229.412 833.2656,226.287 Q833.2656,223.162 834.5781,221.5058 Q835.9063,219.8495 838.4063,219.8495 Q839.1094,219.8495 839.75,220.0058 Q840.4063,220.162 840.9688,220.4589 L840.9688,223.1777 Q840.3438,222.5995 839.75,222.3339 Q839.1563,222.0527 838.5313,222.0527 Q837.1875,222.0527 836.5,223.1308 Q835.8125,224.1933 835.8125,226.287 Q835.8125,228.3808 836.5,229.4589 Q837.1875,230.5214 838.5313,230.5214 Q839.1563,230.5214 839.75,230.2558 Q840.3438,229.9745 840.9688,229.3964 L840.9688,232.1152 Z " fill="#000000"/><text fill="#D9B8FF" font-family="Helvetica" font-size="17" lengthAdjust="spacing" textLength="177" x="857" y="232.3598">aws_sagemaker_trial</text></g><!--class aws_sagemaker_user_profile--><g id="elem_aws_sagemaker_user_profile"><rect codeLine="32" fill="#3D176E" height="39.7891" id="aws_sagemaker_user_profile" rx="2.5" ry="2.5" style="stroke:#000D19;stroke-width:0.5;" width="283" x="376" y="106.79"/><ellipse cx="391" cy="126.6845" fill="#ADD1B2" rx="11" ry="11" style="stroke:#181818;stroke-width:1.0;"/><path d="M393.9688,132.3252 Q393.3906,132.622 392.75,132.7627 Q392.1094,132.9189 391.4063,132.9189 Q388.9063,132.9189 387.5781,131.2783 Q386.2656,129.622 386.2656,126.497 Q386.2656,123.372 387.5781,121.7158 Q388.9063,120.0595 391.4063,120.0595 Q392.1094,120.0595 392.75,120.2158 Q393.4063,120.372 393.9688,120.6689 L393.9688,123.3877 Q393.3438,122.8095 392.75,122.5439 Q392.1563,122.2627 391.5313,122.2627 Q390.1875,122.2627 389.5,123.3408 Q388.8125,124.4033 388.8125,126.497 Q388.8125,128.5908 389.5,129.6689 Q390.1875,130.7314 391.5313,130.7314 Q392.1563,130.7314 392.75,130.4658 Q393.3438,130.1845 393.9688,129.6064 L393.9688,132.3252 Z " fill="#000000"/><text fill="#D9B8FF" font-family="Helvetica" font-size="17" lengthAdjust="spacing" textLength="241" x="410" y="132.5698">aws_sagemaker_user_profile</text></g><!--link aws_sagemaker_domain to aws_sagemaker_app--><g id="link_aws_sagemaker_domain_aws_sagemaker_app"><path codeLine="34" d="M472.95,47.15 C437.39,62.72 386.43,85.48 342.5,106.79 C273.65,140.2 200.0021,179.2641 155.4021,203.2941 " fill="none" id="aws_sagemaker_domain-to-aws_sagemaker_app" style="stroke:#1A83AF;stroke-width:2.0;"/><polygon fill="#1A83AF" points="150.12,206.14,159.9404,205.3925,154.5218,203.7684,156.1459,198.3497,150.12,206.14" style="stroke:#1A83AF;stroke-width:2.0;"/></g><!--link aws_sagemaker_domain to aws_sagemaker_artifact--><g id="link_aws_sagemaker_domain_aws_sagemaker_artifact"><path codeLine="35" d="M439.61,47.18 C408.81,59.03 376.53,77.72 358.5,106.79 C339.31,137.73 353.1949,176.0895 365.7949,200.9195 " fill="none" id="aws_sagemaker_domain-to-aws_sagemaker_artifact" style="stroke:#1A83AF;stroke-width:2.0;"/><polygon fill="#1A83AF" points="368.51,206.27,368.0043,196.4341,366.2474,201.8112,360.8703,200.0543,368.51,206.27" style="stroke:#1A83AF;stroke-width:2.0;"/></g><!--link aws_sagemaker_domain to aws_sagemaker_pipeline--><g id="link_aws_sagemaker_domain_aws_sagemaker_pipeline"><path codeLine="36" d="M595.39,47.18 C626.19,59.03 658.47,77.72 676.5,106.79 C695.53,137.47 684.5449,175.7487 674.0749,200.6587 " fill="none" id="aws_sagemaker_domain-to-aws_sagemaker_pipeline" style="stroke:#1A83AF;stroke-width:2.0;"/><polygon fill="#1A83AF" points="671.75,206.19,678.9248,199.443,673.6874,201.5806,671.5498,196.3432,671.75,206.19" style="stroke:#1A83AF;stroke-width:2.0;"/></g><!--link aws_sagemaker_domain to aws_sagemaker_trial--><g id="link_aws_sagemaker_domain_aws_sagemaker_trial"><path codeLine="37" d="M567.65,47.26 C606.28,62.53 660.79,84.83 707.5,106.79 C776.44,139.21 849.3898,178.8976 893.0698,203.2576 " fill="none" id="aws_sagemaker_domain-to-aws_sagemaker_trial" style="stroke:#1A83AF;stroke-width:2.0;"/><polygon fill="#1A83AF" points="898.31,206.18,892.398,198.3029,893.9432,203.7447,888.5015,205.2898,898.31,206.18" style="stroke:#1A83AF;stroke-width:2.0;"/></g><!--link aws_sagemaker_domain to aws_sagemaker_user_profile--><g id="link_aws_sagemaker_domain_aws_sagemaker_user_profile"><path codeLine="38" d="M517.5,47.22 C517.5,64.36 517.5,83.27 517.5,100.41 " fill="none" id="aws_sagemaker_domain-to-aws_sagemaker_user_profile" style="stroke:#1A83AF;stroke-width:2.0;"/><polygon fill="#1A83AF" points="517.5,106.41,521.5,97.41,517.5,101.41,513.5,97.41,517.5,106.41" style="stroke:#1A83AF;stroke-width:2.0;"/></g><!--link aws_sagemaker_user_profile to aws_sagemaker_app--><g id="link_aws_sagemaker_user_profile_aws_sagemaker_app"><path codeLine="39" d="M437.88,147.01 C367.34,164.12 270.7208,187.5651 200.1308,204.6951 " fill="none" id="aws_sagemaker_user_profile-to-aws_sagemaker_app" style="stroke:#1A83AF;stroke-width:2.0;"/><polygon fill="#1A83AF" points="194.3,206.11,203.9895,207.8748,199.159,204.9309,202.1029,200.1004,194.3,206.11" style="stroke:#1A83AF;stroke-width:2.0;"/></g><!--link aws_sagemaker_user_profile to aws_sagemaker_artifact--><g id="link_aws_sagemaker_user_profile_aws_sagemaker_artifact"><path codeLine="40" d="M490.24,147.01 C466.04,164.15 435.7743,185.5893 411.6043,202.7293 " fill="none" id="aws_sagemaker_user_profile-to-aws_sagemaker_artifact" style="stroke:#1A83AF;stroke-width:2.0;"/><polygon fill="#1A83AF" points="406.71,206.2,416.3652,204.2567,410.7886,203.3077,411.7376,197.731,406.71,206.2" style="stroke:#1A83AF;stroke-width:2.0;"/></g><!--link aws_sagemaker_user_profile to aws_sagemaker_pipeline--><g id="link_aws_sagemaker_user_profile_aws_sagemaker_pipeline"><path codeLine="41" d="M546.15,147.01 C571.57,164.15 603.5365,185.7038 628.9365,202.8438 " fill="none" id="aws_sagemaker_user_profile-to-aws_sagemaker_pipeline" style="stroke:#1A83AF;stroke-width:2.0;"/><polygon fill="#1A83AF" points="633.91,206.2,628.6871,197.8501,629.7654,203.4032,624.2122,204.4815,633.91,206.2" style="stroke:#1A83AF;stroke-width:2.0;"/></g><!--link aws_sagemaker_user_profile to aws_sagemaker_trial--><g id="link_aws_sagemaker_user_profile_aws_sagemaker_trial"><path codeLine="42" d="M599.49,147.01 C672.13,164.12 771.7899,187.6039 844.4899,204.7339 " fill="none" id="aws_sagemaker_user_profile-to-aws_sagemaker_trial" style="stroke:#1A83AF;stroke-width:2.0;"/><polygon fill="#1A83AF" points="850.33,206.11,842.4873,200.1525,845.4633,204.9633,840.6525,207.9393,850.33,206.11" style="stroke:#1A83AF;stroke-width:2.0;"/></g><!--SRC=[bPBDQm8n4CNl_XK1pu9RQTLBOIj8Uv5IUoj5nir4m-QBIQpOql-zhjgIxeUwrxpVcvdto5foPAXTs36DUedaEpwNnW61PYcHtKwiiiIwGe0O3ClYr9fm4PY1HlQ8wWE3pA1ClAvbbXlqdjr4qWDa-Ohinl3Z-41W_5v24o9gei3xD0IIoqt0w1W-New4A9FbeTq1JuPtMC4iSQGJqk_tUJ8k8nTNdStzHypb9x8aBcrc0rREhAmuK6UlB8Zeo4hGNxtnncVWN9eLkutUNeutaK7wzpvV0xVRWXQWVBp61oIqOUTmKac5un4NmrhugGdEYkOORFt2mmerv4WBS8vzTRxhDGfIG1OQ0MurIDCeE-bGIOEDmFxhWMfKDxwOGLP8THnHkxptratIqI2TllVkgzdQUqwPMnj_mxOs7afexOhBwPpfhLKzLplhIxhMtb3LjVP3OJy0]--></g></svg>

<svg xmlns="http://www.w3.org/2000/svg" width="1049" height="252" viewBox="0 0 1049 252"><rect width="215" height="39.789" x="7" y="206.58" fill="#3D176E" rx="2.5" ry="2.5" style="stroke:#000d19;stroke-width:.5"/><circle cx="22" cy="226.475" r="11" fill="#ADD1B2" style="stroke:#181818;stroke-width:1"/><path d="M24.969 232.115q-.578.297-1.219.438-.64.156-1.344.156-2.5 0-3.828-1.64-1.312-1.657-1.312-4.782t1.312-4.781q1.328-1.656 3.828-1.656.703 0 1.344.156.656.156 1.219.453v2.719q-.625-.578-1.219-.844-.594-.281-1.219-.281-1.343 0-2.031 1.078-.687 1.062-.687 3.156t.687 3.172q.688 1.062 2.031 1.062.625 0 1.219-.265.594-.281 1.219-.86z"/><text x="41" y="232.36" fill="#D9B8FF" font-family="Helvetica" font-size="17" textLength="173">aws_sagemaker_app</text><rect width="245" height="39.789" x="257" y="206.58" fill="#3D176E" rx="2.5" ry="2.5" style="stroke:#000d19;stroke-width:.5"/><circle cx="272" cy="226.475" r="11" fill="#ADD1B2" style="stroke:#181818;stroke-width:1"/><path d="M274.969 232.115q-.578.297-1.219.438-.64.156-1.344.156-2.5 0-3.828-1.64-1.312-1.657-1.312-4.782t1.312-4.781q1.328-1.656 3.828-1.656.703 0 1.344.156.656.156 1.219.453v2.719q-.625-.578-1.219-.844-.594-.281-1.219-.281-1.344 0-2.031 1.078-.687 1.062-.687 3.156t.687 3.172q.688 1.062 2.031 1.062.625 0 1.219-.265.594-.281 1.219-.86z"/><text x="291" y="232.36" fill="#D9B8FF" font-family="Helvetica" font-size="17" textLength="203">aws_sagemaker_artifact</text><rect width="248" height="39.789" x="393.5" y="7" fill="#3D176E" rx="2.5" ry="2.5" style="stroke:#000d19;stroke-width:.5"/><circle cx="408.5" cy="26.895" r="11" fill="#ADD1B2" style="stroke:#181818;stroke-width:1"/><path d="M411.469 32.535q-.578.297-1.219.438-.64.156-1.344.156-2.5 0-3.828-1.64-1.312-1.657-1.312-4.782t1.312-4.781q1.328-1.656 3.828-1.656.703 0 1.344.156.656.156 1.219.453v2.719q-.625-.578-1.219-.844-.594-.281-1.219-.281-1.344 0-2.031 1.078-.687 1.062-.687 3.156t.687 3.172q.688 1.062 2.031 1.062.625 0 1.219-.265.594-.281 1.219-.86z"/><text x="427.5" y="32.78" fill="#D9B8FF" font-family="Helvetica" font-size="17" textLength="206">aws_sagemaker_domain</text><rect width="251" height="39.789" x="537" y="206.58" fill="#3D176E" rx="2.5" ry="2.5" style="stroke:#000d19;stroke-width:.5"/><circle cx="552" cy="226.475" r="11" fill="#ADD1B2" style="stroke:#181818;stroke-width:1"/><path d="M554.969 232.115q-.578.297-1.219.438-.64.156-1.344.156-2.5 0-3.828-1.64-1.312-1.657-1.312-4.782t1.312-4.781q1.328-1.656 3.828-1.656.703 0 1.344.156.656.156 1.219.453v2.719q-.625-.578-1.219-.844-.594-.281-1.219-.281-1.343 0-2.031 1.078-.687 1.062-.687 3.156t.687 3.172q.688 1.062 2.031 1.062.625 0 1.219-.265.594-.281 1.219-.86z"/><text x="571" y="232.36" fill="#D9B8FF" font-family="Helvetica" font-size="17" textLength="209">aws_sagemaker_pipeline</text><rect width="219" height="39.789" x="823" y="206.58" fill="#3D176E" rx="2.5" ry="2.5" style="stroke:#000d19;stroke-width:.5"/><circle cx="838" cy="226.475" r="11" fill="#ADD1B2" style="stroke:#181818;stroke-width:1"/><path d="M840.969 232.115q-.578.297-1.219.438-.64.156-1.344.156-2.5 0-3.828-1.64-1.312-1.657-1.312-4.782t1.312-4.781q1.328-1.656 3.828-1.656.703 0 1.344.156.656.156 1.219.453v2.719q-.625-.578-1.219-.844-.594-.281-1.219-.281-1.343 0-2.031 1.078-.687 1.062-.687 3.156t.687 3.172q.688 1.062 2.031 1.062.625 0 1.219-.265.594-.281 1.219-.86z"/><text x="857" y="232.36" fill="#D9B8FF" font-family="Helvetica" font-size="17" textLength="177">aws_sagemaker_trial</text><rect width="283" height="39.789" x="376" y="106.79" fill="#3D176E" rx="2.5" ry="2.5" style="stroke:#000d19;stroke-width:.5"/><circle cx="391" cy="126.684" r="11" fill="#ADD1B2" style="stroke:#181818;stroke-width:1"/><path d="M393.969 132.325q-.578.297-1.219.438-.64.156-1.344.156-2.5 0-3.828-1.64-1.312-1.657-1.312-4.782t1.312-4.781q1.328-1.656 3.828-1.656.703 0 1.344.156.656.156 1.219.453v2.719q-.625-.579-1.219-.844-.594-.281-1.219-.281-1.344 0-2.031 1.078-.687 1.062-.687 3.156t.687 3.172q.688 1.062 2.031 1.062.625 0 1.219-.265.594-.281 1.219-.86z"/><text x="410" y="132.57" fill="#D9B8FF" font-family="Helvetica" font-size="17" textLength="241">aws_sagemaker_user_profile</text><path fill="none" d="M472.95 47.15c-35.56 15.57-86.52 38.33-130.45 59.64-68.85 33.41-142.498 72.474-187.098 96.504" style="stroke:#1a83af;stroke-width:2"/><path fill="#1A83AF" d="m150.12 206.14 9.82-.747-5.418-1.625 1.624-5.418z" style="stroke:#1a83af;stroke-width:2"/><path fill="none" d="M439.61 47.18c-30.8 11.85-63.08 30.54-81.11 59.61-19.19 30.94-5.305 69.3 7.295 94.13" style="stroke:#1a83af;stroke-width:2"/><path fill="#1A83AF" d="m368.51 206.27-.506-9.836-1.757 5.377-5.377-1.757z" style="stroke:#1a83af;stroke-width:2"/><path fill="none" d="M595.39 47.18c30.8 11.85 63.08 30.54 81.11 59.61 19.03 30.68 8.045 68.959-2.425 93.869" style="stroke:#1a83af;stroke-width:2"/><path fill="#1A83AF" d="m671.75 206.19 7.175-6.747-5.238 2.138-2.137-5.238z" style="stroke:#1a83af;stroke-width:2"/><path fill="none" d="M567.65 47.26c38.63 15.27 93.14 37.57 139.85 59.53 68.94 32.42 141.89 72.108 185.57 96.468" style="stroke:#1a83af;stroke-width:2"/><path fill="#1A83AF" d="m898.31 206.18-5.912-7.877 1.545 5.442-5.442 1.545z" style="stroke:#1a83af;stroke-width:2"/><path fill="none" d="M517.5 47.22v53.19" style="stroke:#1a83af;stroke-width:2"/><path fill="#1A83AF" d="m517.5 106.41 4-9-4 4-4-4z" style="stroke:#1a83af;stroke-width:2"/><path fill="none" d="M437.88 147.01c-70.54 17.11-167.16 40.555-237.75 57.685" style="stroke:#1a83af;stroke-width:2"/><path fill="#1A83AF" d="m194.3 206.11 9.69 1.765-4.831-2.944 2.944-4.83z" style="stroke:#1a83af;stroke-width:2"/><path fill="none" d="M490.24 147.01c-24.2 17.14-54.466 38.58-78.636 55.72" style="stroke:#1a83af;stroke-width:2"/><path fill="#1A83AF" d="m406.71 206.2 9.655-1.943-5.576-.95.949-5.576z" style="stroke:#1a83af;stroke-width:2"/><path fill="none" d="M546.15 147.01c25.42 17.14 57.387 38.694 82.787 55.834" style="stroke:#1a83af;stroke-width:2"/><path fill="#1A83AF" d="m633.91 206.2-5.223-8.35 1.078 5.553-5.553 1.079z" style="stroke:#1a83af;stroke-width:2"/><path fill="none" d="M599.49 147.01c72.64 17.11 172.3 40.594 245 57.724" style="stroke:#1a83af;stroke-width:2"/><path fill="#1A83AF" d="m850.33 206.11-7.843-5.958 2.976 4.811-4.81 2.976z" style="stroke:#1a83af;stroke-width:2"/></svg>
